source/img/icon-insta--green.svg

<svg height="22" viewBox="0 0 22 22" width="22" xmlns="http://www.w3.org/2000/svg"><path d="m21.881 12.336c-.013-2.395-.344-4.788-.303-7.135-.023-.788-.086-1.535-.152-2.278-.105-.3-.111-.699-.152-1.062-.26-.17-.222-.64-.456-.835-.423-.233-1.201-.114-1.744-.22-.657-.026-1.254-.115-1.899-.153-1.936-.101-3.973-.076-5.996-.076-2.001 0-3.954-.145-5.695-.379h-2.202c-.097.004-.105.098-.227.076-.599.034-1.077.188-1.595.303-.21.119-.421.235-.683.304-.136.192-.513.145-.607.379-.186.212.185.451 0 .607v.911c.173.13.027.58.075.835v.987c-.017 1.281.134 2.397.076 3.72.467 2.762.374 6.537.076 9.413.155.579.363 1.105.455 1.746.256.479.335 1.133.683 1.52.502.206 1.233.186 1.898.229.383.098.667.293 1.14.3 2.843-.21 5.496-.154 8.427-.229 2.704.24 5.802.188 8.275-.228.195-.134.128-.529.228-.76-.056-.385.207-.449.228-.759.131-2.395.164-4.789.15-7.216zm-12.982-6.225c.757-.153 1.48-.341 2.429-.304.71.076 1.287.283 1.897.456.116.184-.243.547.153.684v.076c.059.017.149.002.151.076.445.035.794.167 1.063.379.45.055.536.476 1.138.3-.091.213-.084.524-.075.835.324 1.183.475 2.81.303 4.252-.164.163-.215.442-.303.683-.311.322-.481.785-.836 1.062-.095.236-.25.408-.454.533-.116.213-.206.452-.457.53-.298.163-.577.011-.834-.076-.446.162-.904.312-1.215.607-.816-.096-1.648-.175-2.43-.304-.242-.139-.487-.273-.835-.305-.227-.204-.496-.364-.836-.455-.101-.127-.337-.118-.455-.229-.198-.029-.229-.227-.456-.229-.118-.412-.443-.618-.532-1.062-.226-.331-.308-.805-.455-1.215-.043-1.434.091-2.692.379-3.796.346-.591.779-1.094 1.138-1.67.249.021.365-.09.38-.304.306.053.434-.072.684-.075.257.008.269-.309.458-.449zm-1.67-2.733c-.117-.263-.066-.691-.075-1.062-.007-.285.278-.279.304-.532-.003-.074-.093-.059-.152-.076.126-.146.701-.097.834 0 .132.537-.354.455-.531.684.011.167.322.032.456.076.029.854-.059 1.496 0 2.202h-.456c-.007.234.229.226.456.228-.059.286.092.363.075.607-.226.153-.716.042-1.062.075-.103-.594.235-1.375.151-2.202zm-.683-1.594c.088-.013.134.016.151.076.179.253.01.683-.076.911-.173-.179-.026-.682-.075-.987zm.152 1.822c-.132-.069-.168-.237-.152-.456.132.071.167.238.152.456zm0 1.367c-.058.139-.082-.045-.076-.152.058-.139.081.045.076.152zm-.152.228c.175-.024.084.219.228.227-.009.193-.283.179-.38.077.039-.112.113-.193.152-.304zm-2.354-1.216c.006-.108.013-.214-.076-.228-.073-.733.13-1.415 0-1.973.25-.155.769-.042 1.139-.077v1.139c-.088.064-.203.101-.379.077-.054.28.324.131.379.304.008.853-.056 1.777.152 2.429-.565-.059-.906.107-1.442.076.097-.612-.019-1.435.531-1.594-.012-.141-.257-.047-.304-.153zm-.531 0c-.204.021-.217-.534-.077-.607.328.006.249.501.077.607zm-.152.988c.077-.312.034-.304.075-.683.228.013.26.77-.075.683zm.228-2.05c-.263.054-.273-.266-.153-.38.263-.053.272.267.153.38zm0-1.139c.033.159-.052.201-.076.304-.176.023-.084-.219-.229-.229.025-.102.191-.062.305-.075zm-.228 3.721c.148-.031.11.345-.076.227.04-.062.079-.124.076-.227zm-.684-3.721c.029.259-.438.32-.379 0zm-.987.076c-.034.219-.326.179-.379.379-.214-.17.084-.468.379-.379zm-.455.759c.226-.205.451-.41.684-.607-.021-.123.071-.131.076-.228h.229c.102.381-.261.296-.305.531.021.122-.072.131-.075.227.02.335.121.588.075.988-.27.008-.276.28-.607.227.022-.428-.135-.674-.077-1.138zm.076 3.265v-1.594c.195-.185.396-.364.607-.532.295.489.179 1.392.455 1.897-.275.157-.75.111-1.062.229zm18.221 11.084c-.109.954-.158 1.968-.379 2.809-2.89.123-6.02.005-8.883.153-.199.045-.273-.031-.229-.229-.253 0-.258.247-.531.229.201-.336.438-.898.151-1.291-.797.013-.797.821-1.138 1.291-.686-.053-1.137.127-1.823.075.18-.705.75-1.021.911-1.745-.395-.55-.989.138-1.214.455-.204.48-.557.81-.76 1.29h-.985c.238-.469.489-.926.759-1.366.171-.512.625-.741.683-1.367-.157-.28-.42-.029-.683 0-.123.182-.272.335-.38.531-.232.376-.501.714-.684 1.14-.181.208-.335.003-.53.227-.389.271-.581.736-.988.987-.174-.06.039-.356.153-.38.045-.181-.096-.55.075-.607.063-.366.212-.647.379-.91.119-.742.521-1.199.684-1.898-.559.099-.674.643-.988.987-.212.445-.542.772-.683 1.291-.174-.131-.028-.58-.076-.836.122-.586.298-1.119.38-1.746.133-.22.173-.535.228-.834.168-.209.046-.61-.077-.761-.226.027-.374.133-.455.304-.192-.032-.193.506-.304.304-.045-2.587-.451-4.812-.456-7.438.026-.331-.183-.424-.228-.685 1.629.028 3.121.091 4.783.229-.089.139-.199.257-.304.379-.144.07-.226.173-.378.304-.604 1.653-.975 3.984-.607 6.15.229.58.589 1.029.986 1.441.907.485 1.635 1.149 2.506 1.671 1.701.361 3.84.369 5.541 0 .236-.12.484-.226.685-.38 1.364-1.242 2.753-2.459 2.961-4.859v-1.367c-.197-1.598-.688-2.905-1.747-3.644.331-.22 1.099.043 1.67.076.223.013.447.014.684 0 .408-.024.928-.055 1.443 0 .144.187.113.544.228.76-.062 1.684-.192 3.3-.152 5.087.103.454.127.986.229 1.441-.091.973-.237 1.89-.457 2.732zm.379-11.16c-.639-.12-1.232-.284-1.897-.379.072-.333.799-.01.987-.228.385-.223.295-.92.304-1.51.032-.348.114-.644.076-1.063-.401-.951-1.783-.421-2.886-.455-.225.718-.47 1.8-.304 2.657.169.49 1.024.292 1.519.456-.14.332-.688.057-.987.076-.296-.083-.707-.052-.986-.151-2.285.078-4.284.004-6.529.151.117-1.248.063-2.465-.076-3.645h3.112c-.344.364-.912.507-1.29.835-.44.244-.861.505-1.139.911.249.134.535-.245.759-.379.355-.074.479-.381.835-.455.423-.438 1.096-.625 1.67-.912.378-.022.697.013.987.077 1.283.007 2.456.126 3.796.076.614.145 1.45.069 1.974.304.107.298.231.579.305.911.008.986-.149 1.816-.23 2.723zm-5.845-3.72c.11-.047-.009-.092 0 0zm0 0c-.529.154-1.019.348-1.367.682.484-.198 1.059-.306 1.367-.682zm1.062.607c.111-.047-.007-.091 0 0zm-1.746.911c.727-.158 1.181-.591 1.746-.911-.437.019-.592.32-.987.379-.215.217-.6.26-.759.532zm-.683-.835c-.111.047.007.092 0 0zm-.683.607c.11-.046-.008-.092 0 0zm-.075.076c.063.014.07-.03.075-.076-.064-.014-.072.03-.075.076zm-.077.076c.064.014.072-.03.077-.076-.067-.013-.072.029-.077.076zm-.834.608c.346-.134.613-.348.834-.607-.348.133-.615.347-.834.607zm2.276.987c.533-.049.749-.416 1.215-.531.284-.298.784-.381.987-.76-.56.023-.766.399-1.216.531-.284.297-.751.413-.986.76zm-2.276-.987c-.317-.074-.016.227 0 0zm-.533.379c.021.021.115-.037.076-.077-.021-.02-.116.038-.076.077zm2.809.608c-.11.047.007.091 0 0zm-1.14 1.821c-.223-.231-.676-.233-.986-.379-.697-.038-1.223.093-1.746.229-.304.151-.607.304-.91.454-.266.166-.444.417-.76.532-.205.225-.352.51-.684.607-.004.223-.173.281-.304.379-.089.115-.094.312-.227.381-.007.12.036.29-.076.303.108 1.512.291 2.948.683 4.177.287.623.975.846 1.442 1.29.589.297 1.328.444 2.126.531.277-.052.553-.105.911-.076 1.209-.209 2.098-.736 2.81-1.441.1-.281.252-.508.455-.684-.254-.671.293-1.098.455-1.59.002-1.344-.201-2.48-.607-3.415-.256-.579-.92-.751-1.366-1.139-.059-.018-.15-.003-.151-.077-.269-.136-.733-.239-1.065-.082zm-3.415 4.327c-.113-.063-.109-.244-.152-.379.256-.078.118.237.152.379zm.076.305c.041-.117.079-.006.076.075-.04.118-.079.005-.076-.075zm.456-2.051c.015-.086.075-.042.075 0-.014.087-.075.043-.075 0zm1.67-2.125c-.203.258.041.576.077.836-.305-.039-.574-.887-.077-.836zm.379 3.948c-.04-.038.055-.097.076-.076.04.038-.054.097-.076.076zm.759 2.884c.034-.109.066.008.152 0-.018.097-.15.077-.152 0zm2.201-2.581c-.233-.057-.145.208-.379.152.069-.159.118-.338.229-.455.134.019.172.13.15.303zm-1.137-3.796c.211.119.441.217.606.381.085.219.243.363.38.529.058.778.179 1.492.151 2.354-.257.099-.438.271-.683.381-.78-.006-1.358-.212-1.897-.456-.171-.259-.355-.505-.532-.759v-1.062c.17-.185.319-.391.456-.607.228-.127.508-.201.454-.607-.038-.062-.078-.124-.075-.229.158.045.245.159.379.229.323.017.41-.2.761-.154z" fill="#46c1ae" fill-rule="evenodd"/></svg>

<?xml version="1.0" encoding="UTF-8"?>
<svg width="22px" height="22px" viewBox="0 0 22 22" version="1.1" xmlns="http://www.w3.org/2000/svg" xmlns:xlink="http://www.w3.org/1999/xlink">
    <!-- Generator: Sketch 52.2 (67145) - http://www.bohemiancoding.com/sketch -->
    <title>Shape</title>
    <desc>Created with Sketch.</desc>
    <g id="Symbols" stroke="none" stroke-width="1" fill="none" fill-rule="evenodd">
        <g id="icon-insta-color" fill="#46C1AE">
            <path d="M21.881,12.336 C21.868,9.941 21.537,7.548 21.578,5.201 C21.555,4.413 21.492,3.666 21.426,2.923 C21.321,2.623 21.315,2.224 21.274,1.861 C21.014,1.691 21.052,1.221 20.818,1.026 C20.395,0.793 19.617,0.912 19.074,0.806 C18.417,0.78 17.82,0.691 17.175,0.653 C15.239,0.552 13.202,0.577 11.179,0.577 C9.178,0.577 7.225,0.432 5.484,0.198 L3.282,0.198 C3.185,0.202 3.177,0.296 3.055,0.274 C2.456,0.308 1.978,0.462 1.46,0.577 C1.25,0.696 1.039,0.812 0.777,0.881 C0.641,1.073 0.264,1.026 0.17,1.26 C-0.016,1.472 0.355,1.711 0.17,1.867 L0.17,2.778 C0.343,2.908 0.197,3.358 0.245,3.613 L0.245,4.6 C0.228,5.881 0.379,6.997 0.321,8.32 C0.788,11.082 0.695,14.857 0.397,17.733 C0.552,18.312 0.76,18.838 0.852,19.479 C1.108,19.958 1.187,20.612 1.535,20.999 C2.037,21.205 2.768,21.185 3.433,21.228 C3.816,21.326 4.1,21.521 4.573,21.528 C7.416,21.318 10.069,21.374 13,21.299 C15.704,21.539 18.802,21.487 21.275,21.071 C21.47,20.937 21.403,20.542 21.503,20.311 C21.447,19.926 21.71,19.862 21.731,19.552 C21.862,17.157 21.895,14.763 21.881,12.336 Z M8.899,6.111 C9.656,5.958 10.379,5.77 11.328,5.807 C12.038,5.883 12.615,6.09 13.225,6.263 C13.341,6.447 12.982,6.81 13.378,6.947 L13.378,7.023 C13.437,7.04 13.527,7.025 13.529,7.099 C13.974,7.134 14.323,7.266 14.592,7.478 C15.042,7.533 15.128,7.954 15.73,7.778 C15.639,7.991 15.646,8.302 15.655,8.613 C15.979,9.796 16.13,11.423 15.958,12.865 C15.794,13.028 15.743,13.307 15.655,13.548 C15.344,13.87 15.174,14.333 14.819,14.61 C14.724,14.846 14.569,15.018 14.365,15.143 C14.249,15.356 14.159,15.595 13.908,15.673 C13.61,15.836 13.331,15.684 13.074,15.597 C12.628,15.759 12.17,15.909 11.859,16.204 C11.043,16.108 10.211,16.029 9.429,15.9 C9.187,15.761 8.942,15.627 8.594,15.595 C8.367,15.391 8.098,15.231 7.758,15.14 C7.657,15.013 7.421,15.022 7.303,14.911 C7.105,14.882 7.074,14.684 6.847,14.682 C6.729,14.27 6.404,14.064 6.315,13.62 C6.089,13.289 6.007,12.815 5.86,12.405 C5.817,10.971 5.951,9.713 6.239,8.609 C6.585,8.018 7.018,7.515 7.377,6.939 C7.626,6.96 7.742,6.849 7.757,6.635 C8.063,6.688 8.191,6.563 8.441,6.56 C8.698,6.568 8.71,6.251 8.899,6.111 Z M7.229,3.378 C7.112,3.115 7.163,2.687 7.154,2.316 C7.147,2.031 7.432,2.037 7.458,1.784 C7.455,1.71 7.365,1.725 7.306,1.708 C7.432,1.562 8.007,1.611 8.14,1.708 C8.272,2.245 7.786,2.163 7.609,2.392 C7.62,2.559 7.931,2.424 8.065,2.468 C8.094,3.322 8.006,3.964 8.065,4.67 L7.609,4.67 C7.602,4.904 7.838,4.896 8.065,4.898 C8.006,5.184 8.157,5.261 8.14,5.505 C7.914,5.658 7.424,5.547 7.078,5.58 C6.975,4.986 7.313,4.205 7.229,3.378 Z M6.546,1.784 C6.634,1.771 6.68,1.8 6.697,1.86 C6.876,2.113 6.707,2.543 6.621,2.771 C6.448,2.592 6.595,2.089 6.546,1.784 Z M6.698,3.606 C6.566,3.537 6.53,3.369 6.546,3.15 C6.678,3.221 6.713,3.388 6.698,3.606 Z M6.698,4.973 C6.64,5.112 6.616,4.928 6.622,4.821 C6.68,4.682 6.703,4.866 6.698,4.973 Z M6.546,5.201 C6.721,5.177 6.63,5.42 6.774,5.428 C6.765,5.621 6.491,5.607 6.394,5.505 C6.433,5.393 6.507,5.312 6.546,5.201 Z M4.192,3.985 C4.198,3.877 4.205,3.771 4.116,3.757 C4.043,3.024 4.246,2.342 4.116,1.784 C4.366,1.629 4.885,1.742 5.255,1.707 L5.255,2.846 C5.167,2.91 5.052,2.947 4.876,2.923 C4.822,3.203 5.2,3.054 5.255,3.227 C5.263,4.08 5.199,5.004 5.407,5.656 C4.842,5.597 4.501,5.763 3.965,5.732 C4.062,5.12 3.946,4.297 4.496,4.138 C4.484,3.997 4.239,4.091 4.192,3.985 Z M3.661,3.985 C3.457,4.006 3.444,3.451 3.584,3.378 C3.912,3.384 3.833,3.879 3.661,3.985 Z M3.509,4.973 C3.586,4.661 3.543,4.669 3.584,4.29 C3.812,4.303 3.844,5.06 3.509,4.973 Z M3.737,2.923 C3.474,2.977 3.464,2.657 3.584,2.543 C3.847,2.49 3.856,2.81 3.737,2.923 Z M3.737,1.784 C3.77,1.943 3.685,1.985 3.661,2.088 C3.485,2.111 3.577,1.869 3.432,1.859 C3.457,1.757 3.623,1.797 3.737,1.784 Z M3.509,5.505 C3.657,5.474 3.619,5.85 3.433,5.732 C3.473,5.67 3.512,5.608 3.509,5.505 Z M2.825,1.784 C2.854,2.043 2.387,2.104 2.446,1.784 L2.825,1.784 Z M1.838,1.86 C1.804,2.079 1.512,2.039 1.459,2.239 C1.245,2.069 1.543,1.771 1.838,1.86 Z M1.383,2.619 C1.609,2.414 1.834,2.209 2.067,2.012 C2.046,1.889 2.138,1.881 2.143,1.784 L2.372,1.784 C2.474,2.165 2.111,2.08 2.067,2.315 C2.088,2.437 1.995,2.446 1.992,2.542 C2.012,2.877 2.113,3.13 2.067,3.53 C1.797,3.538 1.791,3.81 1.46,3.757 C1.482,3.329 1.325,3.083 1.383,2.619 Z M1.459,5.884 L1.459,4.29 C1.654,4.105 1.855,3.926 2.066,3.758 C2.361,4.247 2.245,5.15 2.521,5.655 C2.246,5.812 1.771,5.766 1.459,5.884 Z M19.68,16.968 C19.571,17.922 19.522,18.936 19.301,19.777 C16.411,19.9 13.281,19.782 10.418,19.93 C10.219,19.975 10.145,19.899 10.189,19.701 C9.936,19.701 9.931,19.948 9.658,19.93 C9.859,19.594 10.096,19.032 9.809,18.639 C9.012,18.652 9.012,19.46 8.671,19.93 C7.985,19.877 7.534,20.057 6.848,20.005 C7.028,19.3 7.598,18.984 7.759,18.26 C7.364,17.71 6.77,18.398 6.545,18.715 C6.341,19.195 5.988,19.525 5.785,20.005 L4.8,20.005 C5.038,19.536 5.289,19.079 5.559,18.639 C5.73,18.127 6.184,17.898 6.242,17.272 C6.085,16.992 5.822,17.243 5.559,17.272 C5.436,17.454 5.287,17.607 5.179,17.803 C4.947,18.179 4.678,18.517 4.495,18.943 C4.314,19.151 4.16,18.946 3.965,19.17 C3.576,19.441 3.384,19.906 2.977,20.157 C2.803,20.097 3.016,19.801 3.13,19.777 C3.175,19.596 3.034,19.227 3.205,19.17 C3.268,18.804 3.417,18.523 3.584,18.26 C3.703,17.518 4.105,17.061 4.268,16.362 C3.709,16.461 3.594,17.005 3.28,17.349 C3.068,17.794 2.738,18.121 2.597,18.64 C2.423,18.509 2.569,18.06 2.521,17.804 C2.643,17.218 2.819,16.685 2.901,16.058 C3.034,15.838 3.074,15.523 3.129,15.224 C3.297,15.015 3.175,14.614 3.052,14.463 C2.826,14.49 2.678,14.596 2.597,14.767 C2.405,14.735 2.404,15.273 2.293,15.071 C2.248,12.484 1.842,10.259 1.837,7.633 C1.863,7.302 1.654,7.209 1.609,6.948 C3.238,6.976 4.73,7.039 6.392,7.177 C6.303,7.316 6.193,7.434 6.088,7.556 C5.944,7.626 5.862,7.729 5.71,7.86 C5.106,9.513 4.735,11.844 5.103,14.01 C5.332,14.59 5.692,15.039 6.089,15.451 C6.996,15.936 7.724,16.6 8.595,17.122 C10.296,17.483 12.435,17.491 14.136,17.122 C14.372,17.002 14.62,16.896 14.821,16.742 C16.185,15.5 17.574,14.283 17.782,11.883 L17.782,10.516 C17.585,8.918 17.094,7.611 16.035,6.872 C16.366,6.652 17.134,6.915 17.705,6.948 C17.928,6.961 18.152,6.962 18.389,6.948 C18.797,6.924 19.317,6.893 19.832,6.948 C19.976,7.135 19.945,7.492 20.06,7.708 C19.998,9.392 19.868,11.008 19.908,12.795 C20.011,13.249 20.035,13.781 20.137,14.236 C20.046,15.209 19.9,16.126 19.68,16.968 Z M20.059,5.808 C19.42,5.688 18.827,5.524 18.162,5.429 C18.234,5.096 18.961,5.419 19.149,5.201 C19.534,4.978 19.444,4.281 19.453,3.691 C19.485,3.343 19.567,3.047 19.529,2.628 C19.128,1.677 17.746,2.207 16.643,2.173 C16.418,2.891 16.173,3.973 16.339,4.83 C16.508,5.32 17.363,5.122 17.858,5.286 C17.718,5.618 17.17,5.343 16.871,5.362 C16.575,5.279 16.164,5.31 15.885,5.211 C13.6,5.289 11.601,5.215 9.356,5.362 C9.473,4.114 9.419,2.897 9.28,1.717 L12.392,1.717 C12.048,2.081 11.48,2.224 11.102,2.552 C10.662,2.796 10.241,3.057 9.963,3.463 C10.212,3.597 10.498,3.218 10.722,3.084 C11.077,3.01 11.201,2.703 11.557,2.629 C11.98,2.191 12.653,2.004 13.227,1.717 C13.605,1.695 13.924,1.73 14.214,1.794 C15.497,1.801 16.67,1.92 18.01,1.87 C18.624,2.015 19.46,1.939 19.984,2.174 C20.091,2.472 20.215,2.753 20.289,3.085 C20.297,4.071 20.14,4.901 20.059,5.808 Z M14.214,2.088 C14.324,2.041 14.205,1.996 14.214,2.088 Z M14.214,2.088 C13.685,2.242 13.195,2.436 12.847,2.77 C13.331,2.572 13.906,2.464 14.214,2.088 Z M15.276,2.695 C15.387,2.648 15.269,2.604 15.276,2.695 Z M13.53,3.606 C14.257,3.448 14.711,3.015 15.276,2.695 C14.839,2.714 14.684,3.015 14.289,3.074 C14.074,3.291 13.689,3.334 13.53,3.606 Z M12.847,2.771 C12.736,2.818 12.854,2.863 12.847,2.771 Z M12.164,3.378 C12.274,3.332 12.156,3.286 12.164,3.378 Z M12.089,3.454 C12.152,3.468 12.159,3.424 12.164,3.378 C12.1,3.364 12.092,3.408 12.089,3.454 Z M12.012,3.53 C12.076,3.544 12.084,3.5 12.089,3.454 C12.022,3.441 12.017,3.483 12.012,3.53 Z M11.178,4.138 C11.524,4.004 11.791,3.79 12.012,3.531 C11.664,3.664 11.397,3.878 11.178,4.138 Z M13.454,5.125 C13.987,5.076 14.203,4.709 14.669,4.594 C14.953,4.296 15.453,4.213 15.656,3.834 C15.096,3.857 14.89,4.233 14.44,4.365 C14.156,4.662 13.689,4.778 13.454,5.125 Z M11.178,4.138 C10.861,4.064 11.162,4.365 11.178,4.138 Z M10.645,4.517 C10.666,4.538 10.76,4.48 10.721,4.44 C10.7,4.42 10.605,4.478 10.645,4.517 Z M13.454,5.125 C13.344,5.172 13.461,5.216 13.454,5.125 Z M12.314,6.946 C12.091,6.715 11.638,6.713 11.328,6.567 C10.631,6.529 10.105,6.66 9.582,6.796 C9.278,6.947 8.975,7.1 8.672,7.25 C8.406,7.416 8.228,7.667 7.912,7.782 C7.707,8.007 7.56,8.292 7.228,8.389 C7.224,8.612 7.055,8.67 6.924,8.768 C6.835,8.883 6.83,9.08 6.697,9.149 C6.69,9.269 6.733,9.439 6.621,9.452 C6.729,10.964 6.912,12.4 7.304,13.629 C7.591,14.252 8.279,14.475 8.746,14.919 C9.335,15.216 10.074,15.363 10.872,15.45 C11.149,15.398 11.425,15.345 11.783,15.374 C12.992,15.165 13.881,14.638 14.593,13.933 C14.693,13.652 14.845,13.425 15.048,13.249 C14.794,12.578 15.341,12.151 15.503,11.659 C15.505,10.315 15.302,9.179 14.896,8.244 C14.64,7.665 13.976,7.493 13.53,7.105 C13.471,7.087 13.38,7.102 13.379,7.028 C13.11,6.892 12.646,6.789 12.314,6.946 Z M8.899,11.273 C8.786,11.21 8.79,11.029 8.747,10.894 C9.003,10.816 8.865,11.131 8.899,11.273 Z M8.975,11.578 C9.016,11.461 9.054,11.572 9.051,11.653 C9.011,11.771 8.972,11.658 8.975,11.578 Z M9.431,9.527 C9.446,9.441 9.506,9.485 9.506,9.527 C9.492,9.614 9.431,9.57 9.431,9.527 Z M11.101,7.402 C10.898,7.66 11.142,7.978 11.178,8.238 C10.873,8.199 10.604,7.351 11.101,7.402 Z M11.48,11.35 C11.44,11.312 11.535,11.253 11.556,11.274 C11.596,11.312 11.502,11.371 11.48,11.35 Z M12.239,14.234 C12.273,14.125 12.305,14.242 12.391,14.234 C12.373,14.331 12.241,14.311 12.239,14.234 Z M14.44,11.653 C14.207,11.596 14.295,11.861 14.061,11.805 C14.13,11.646 14.179,11.467 14.29,11.35 C14.424,11.369 14.462,11.48 14.44,11.653 Z M13.303,7.857 C13.514,7.976 13.744,8.074 13.909,8.238 C13.994,8.457 14.152,8.601 14.289,8.767 C14.347,9.545 14.468,10.259 14.44,11.121 C14.183,11.22 14.002,11.392 13.757,11.502 C12.977,11.496 12.399,11.29 11.86,11.046 C11.689,10.787 11.505,10.541 11.328,10.287 L11.328,9.225 C11.498,9.04 11.647,8.834 11.784,8.618 C12.012,8.491 12.292,8.417 12.238,8.011 C12.2,7.949 12.16,7.887 12.163,7.782 C12.321,7.827 12.408,7.941 12.542,8.011 C12.865,8.028 12.952,7.811 13.303,7.857 Z" id="Shape"></path>
        </g>
    </g>
</svg>
